X: 22313
T: La Russe
R: polka
M: 2/4
K: Gmajor
|:GB/B/ Bd/d/|dg/g/ gf/g/|ag ec|ed d/c/B/A/|
GB/B/ Bd/d/|dg/g/ gf/g/|ed dF|AG G2:|
K: Dmaj
Ad dc/B/|Aa- af|g>f ge|f/g/a/g/ f/e/d/B/|
Ad/d/ dc/B/|Aa/a/ af|g>f ge|d2||
K: Gmaj
d/c/B/A/|GB/B/ Bd/d/|dg/g/ gf/g/|ag e/f/e/c/|ed d/c/B/A/|
GB Bd|d>g gf/g/|ed- dF|AG G2||

